!! 00000] TT[00
!! NN
!!!OTL: Women bupa da laohu
!!!ARE: Guangxi, Huanjiang
!! Ethnic Group: Maonan
!! II, 548
!!!SCT: C0261
!!!YEM: Copyright 1995, estate of Helmut Schaffrath.
**kern
*ICvox
*Ivox
!! Mixed meters:  2/4; 3/4; 3/8
*M3/8
*k[f#c#g#d#]
*E:
{8c#
8c#
8f#
8e
=1
8e
4g#
=2
*M3/4
8f#
8f#
8f#
8c#
4e}
=3
*M2/4
{8f#
8f#
8b
8g#
=4
*M3/8
8g#
4g#
=5
*M2/4
8g#
16g#
16e
4f#
=6
8e
8g#
8f#
8c#
=7
2c#}
=8
{4c#
8c#
8c#
=9
*M3/8
8f#
4g#
=10
*M3/4
8g#
8f#
8f#
8g#
4e}
=11
*M2/4
{8f#
8f#
8b
8g#
=12
*M3/8
8g#
4g#
=13
*M2/4
8f#
8e
4f#
=14
8e
8g#
8f#
8c#
=15
2c#}
==
!!!AGN: Erge, Bishua
!! Von klein auf lernen die Kinder hier das zweistimmige bis
!!    dreistimmige Singen. Es gibt auch unisono mit Vorsaenger. Der Sinn
!!    des Spiels: Wer falsch singt, muss sich einen anderen Partner
!!    suchen und, wenn keiner frei ist, ausscheiden.
!!    Zweistimmig. Phr.1,4, jeweils T.1 werden von der Unterstimme gesungen,
!!    waehrend die Oberstimme pausiert. Sonst ist die Oberstimme kodiert.
!!    Einen Takt Pause zwischen Phr.3 und 4 weggelassen.
!!!ONB: ESAC (Essen Associative Code) Database: CHINA
!!!AMT: irregular
!!!AIN: vox
!!!EED: Helmut Schaffrath
!!!EEV: 1.0
*-
